source/img/svg/icon-site-1.svg

<svg width="30" height="30" viewBox="0 0 30 30" fill="none" xmlns="http://www.w3.org/2000/svg">
<path d="M12.0004 13.579L8.68457 16.8948L12.0004 20.2106" stroke="#EB5757" stroke-linecap="round" stroke-linejoin="round"/>
<path d="M18.1578 13.579L21.4736 16.8948L18.1578 20.2106" stroke="#EB5757" stroke-linecap="round" stroke-linejoin="round"/>
<path d="M16.7398 12.3084C16.823 12.0451 16.6769 11.7642 16.4136 11.681C16.1502 11.5979 15.8694 11.7439 15.7862 12.0073L16.7398 12.3084ZM12.9441 21.0073C12.861 21.2706 13.007 21.5515 13.2703 21.6346C13.5337 21.7178 13.8145 21.5717 13.8977 21.3084L12.9441 21.0073ZM15.7862 12.0073L12.9441 21.0073L13.8977 21.3084L16.7398 12.3084L15.7862 12.0073Z" fill="#EB5757"/>
<path d="M3 9.78947V22C3 23.1046 3.89543 24 5 24H24.6842C25.7888 24 26.6842 23.1046 26.6842 22V9.78947M3 9.78947V8C3 6.89543 3.89543 6 5 6H24.6842C25.7888 6 26.6842 6.89543 26.6842 8V9.78947M3 9.78947H26.6842" stroke="#EB5757"/>
<path d="M8.68457 7.89478C9.06352 7.89478 17.2109 7.89478 21.9477 7.89478M23.3688 7.89478H24.7898" stroke="#EB5757" stroke-linecap="round"/>
<circle cx="7.40483" cy="7.84734" r="0.426316" fill="#EB5757"/>
<circle cx="6.07866" cy="7.84734" r="0.426316" fill="#EB5757"/>
<circle cx="4.84721" cy="7.84734" r="0.426316" fill="#EB5757"/>
</svg>

<svg width="30" height="30" fill="none" xmlns="http://www.w3.org/2000/svg"><path d="M12 13.579l-3.315 3.316L12 20.21m6.158-6.631l3.316 3.316-3.316 3.316" stroke="#EB5757" stroke-linecap="round" stroke-linejoin="round"/><path d="M16.74 12.308a.5.5 0 10-.954-.3l.954.3zm-3.796 8.7a.5.5 0 00.954.3l-.954-.3zm2.842-9l-2.842 9 .954.3 2.842-9-.954-.3z" fill="#EB5757"/><path d="M3 9.79V22a2 2 0 002 2h19.684a2 2 0 002-2V9.79M3 9.79V8a2 2 0 012-2h19.684a2 2 0 012 2v1.79M3 9.79h23.684" stroke="#EB5757"/><path d="M8.685 7.895h13.263m1.42 0h1.422" stroke="#EB5757" stroke-linecap="round"/><circle cx="7.405" cy="7.847" r=".426" fill="#EB5757"/><circle cx="6.079" cy="7.847" r=".426" fill="#EB5757"/><circle cx="4.847" cy="7.847" r=".426" fill="#EB5757"/></svg>
